public/assets/icons/message.svg

<svg width="48" height="48" fill="none" xmlns="http://www.w3.org/2000/svg">
 <g>
  <path id="svg_1" stroke-linejoin="round" stroke-linecap="round" stroke-width="2" stroke="#0F1A20" d="m7.5,12l0.01,0m4.49,0l0.01,0m4.49,0l0.01,0m-4.51,9c4.9706,0 9,-4.0294 9,-9c0,-4.97056 -4.0294,-9 -9,-9c-4.97056,0 -9,4.02944 -9,9c0,1.1971 0.23374,2.3397 0.65806,3.3845c0.08121,0.2 0.12182,0.3 0.13994,0.3808c0.01772,0.079 0.0242,0.1375 0.02421,0.2186c0.00001,0.0828 -0.01503,0.173 -0.0451,0.3535l-0.59298,3.5578c-0.0621,0.3726 -0.09315,0.5589 -0.03537,0.6936c0.05057,0.1179 0.14452,0.2119 0.26242,0.2624c0.13471,0.0578 0.321,0.0268 0.69358,-0.0353l3.55789,-0.593c0.18044,-0.0301 0.27065,-0.0451 0.35348,-0.0451c0.08102,0 0.13953,0.0065 0.21859,0.0242c0.08082,0.0181 0.1808,0.0587 0.38077,0.1399c1.04481,0.4244 2.18741,0.6581 3.38451,0.6581zm-4,-9c0,0.2761 -0.22386,0.5 -0.5,0.5c-0.27614,0 -0.5,-0.2239 -0.5,-0.5c0,-0.2761 0.22386,-0.5 0.5,-0.5c0.27614,0 0.5,0.2239 0.5,0.5zm4.5,0c0,0.2761 -0.2239,0.5 -0.5,0.5c-0.2761,0 -0.5,-0.2239 -0.5,-0.5c0,-0.2761 0.2239,-0.5 0.5,-0.5c0.2761,0 0.5,0.2239 0.5,0.5zm4.5,0c0,0.2761 -0.2239,0.5 -0.5,0.5c-0.2761,0 -0.5,-0.2239 -0.5,-0.5c0,-0.2761 0.2239,-0.5 0.5,-0.5c0.2761,0 0.5,0.2239 0.5,0.5z"/>
 </g>
</svg>

<svg viewBox="0 0 24 24" fill="none" xmlns="http://www.w3.org/2000/svg">
<path d="M7.5 12H7.51M12 12H12.01M16.5 12H16.51M12 21C16.9706 21 21 16.9706 21 12C21 7.02944 16.9706 3 12 3C7.02944 3 3 7.02944 3 12C3 13.1971 3.23374 14.3397 3.65806 15.3845C3.73927 15.5845 3.77988 15.6845 3.798 15.7653C3.81572 15.8443 3.8222 15.9028 3.82221 15.9839C3.82222 16.0667 3.80718 16.1569 3.77711 16.3374L3.18413 19.8952C3.12203 20.2678 3.09098 20.4541 3.14876 20.5888C3.19933 20.7067 3.29328 20.8007 3.41118 20.8512C3.54589 20.909 3.73218 20.878 4.10476 20.8159L7.66265 20.2229C7.84309 20.1928 7.9333 20.1778 8.01613 20.1778C8.09715 20.1778 8.15566 20.1843 8.23472 20.202C8.31554 20.2201 8.41552 20.2607 8.61549 20.3419C9.6603 20.7663 10.8029 21 12 21ZM8 12C8 12.2761 7.77614 12.5 7.5 12.5C7.22386 12.5 7 12.2761 7 12C7 11.7239 7.22386 11.5 7.5 11.5C7.77614 11.5 8 11.7239 8 12ZM12.5 12C12.5 12.2761 12.2761 12.5 12 12.5C11.7239 12.5 11.5 12.2761 11.5 12C11.5 11.7239 11.7239 11.5 12 11.5C12.2761 11.5 12.5 11.7239 12.5 12ZM17 12C17 12.2761 16.7761 12.5 16.5 12.5C16.2239 12.5 16 12.2761 16 12C16 11.7239 16.2239 11.5 16.5 11.5C16.7761 11.5 17 11.7239 17 12Z" stroke="#0F1A20" stroke-width="2" stroke-linecap="round" stroke-linejoin="round"/>
</svg>
